app/assets/images/country-squared/ug.svg

<?xml version="1.0" encoding="UTF-8"?>
<svg xmlns="http://www.w3.org/2000/svg" xmlns:xlink="http://www.w3.org/1999/xlink" width="384pt" height="384pt" viewBox="0 0 384 384" version="1.1">
<defs>
<clipPath id="clip1">
  <path d="M 0 256 L 383.988281 256 L 383.988281 320 L 0 320 Z M 0 256 "/>
</clipPath>
<clipPath id="clip2">
  <path d="M 0 191 L 383.988281 191 L 383.988281 256 L 0 256 Z M 0 191 "/>
</clipPath>
<clipPath id="clip3">
  <path d="M 0 128 L 383.988281 128 L 383.988281 192 L 0 192 Z M 0 128 "/>
</clipPath>
<clipPath id="clip4">
  <path d="M 0 64 L 383.988281 64 L 383.988281 129 L 0 129 Z M 0 64 "/>
</clipPath>
<clipPath id="clip5">
  <path d="M 0 0 L 383.988281 0 L 383.988281 64 L 0 64 Z M 0 0 "/>
</clipPath>
<clipPath id="clip6">
  <path d="M 0 320 L 383.988281 320 L 383.988281 383.988281 L 0 383.988281 Z M 0 320 "/>
</clipPath>
</defs>
<g id="surface1">
<g clip-path="url(#clip1)" clip-rule="nonzero">
<path style=" stroke:none;fill-rule:evenodd;fill:rgb(100%,90.588235%,0%);fill-opacity:1;" d="M -96 256.007812 L 479.980469 256.007812 L 479.980469 320 L -96 320 Z M -96 256.007812 "/>
</g>
<g clip-path="url(#clip2)" clip-rule="nonzero">
<path style=" stroke:none;fill-rule:evenodd;fill:rgb(0%,0%,0%);fill-opacity:1;" d="M -96 191.992188 L 479.980469 191.992188 L 479.980469 255.984375 L -96 255.984375 Z M -96 191.992188 "/>
</g>
<g clip-path="url(#clip3)" clip-rule="nonzero">
<path style=" stroke:none;fill-rule:evenodd;fill:rgb(87.058824%,22.352941%,3.137255%);fill-opacity:1;" d="M -96 128.007812 L 479.980469 128.007812 L 479.980469 191.996094 L -96 191.996094 Z M -96 128.007812 "/>
</g>
<g clip-path="url(#clip4)" clip-rule="nonzero">
<path style=" stroke:none;fill-rule:evenodd;fill:rgb(100%,90.588235%,0%);fill-opacity:1;" d="M -96 64.015625 L 479.980469 64.015625 L 479.980469 128.003906 L -96 128.003906 Z M -96 64.015625 "/>
</g>
<g clip-path="url(#clip5)" clip-rule="nonzero">
<path style=" stroke:none;fill-rule:evenodd;fill:rgb(0%,0%,0%);fill-opacity:1;" d="M -96 0 L 479.980469 0 L 479.980469 63.988281 L -96 63.988281 Z M -96 0 "/>
</g>
<path style="fill-rule:evenodd;fill:rgb(100%,99.215686%,100%);fill-opacity:1;stroke-width:1.25;stroke-linecap:butt;stroke-linejoin:miter;stroke:rgb(0%,0%,0%);stroke-opacity:1;stroke-miterlimit:4;" d="M 505.000822 232.30685 C 505.000822 295.82576 453.512407 347.306662 390.00101 347.306662 C 326.489614 347.306662 275.001199 295.82576 275.001199 232.30685 C 275.001199 168.795453 326.489614 117.307038 390.00101 117.307038 C 453.512407 117.307038 505.000822 168.795453 505.000822 232.30685 Z M 505.000822 232.30685 " transform="matrix(0.519838,0,0,0.519838,-10.745082,71.230304)"/>
<path style="fill-rule:evenodd;fill:rgb(87.058824%,19.215686%,3.137255%);fill-opacity:1;stroke-width:1.25;stroke-linecap:butt;stroke-linejoin:miter;stroke:rgb(0%,0%,0%);stroke-opacity:1;stroke-miterlimit:4;" d="M 374.71223 141.648343 L 367.242953 127.897058 C 370.128469 125.019057 374.975233 122.787291 382.699998 122.787291 C 382.699998 123.313297 381.91099 137.853589 381.91099 137.853589 Z M 374.71223 141.648343 " transform="matrix(0.519838,0,0,0.519838,-13.344271,72.529899)"/>
<path style="fill-rule:evenodd;fill:rgb(100%,90.588235%,0%);fill-opacity:1;stroke-width:1.25;stroke-linecap:butt;stroke-linejoin:miter;stroke:rgb(0%,0%,0%);stroke-opacity:1;stroke-miterlimit:4;" d="M 381.91099 137.988848 L 382.955486 122.794806 C 382.955486 122.794806 398.412531 121.878053 406.79856 131.962329 C 406.926305 131.834584 398.540275 143.752364 398.540275 143.752364 Z M 381.91099 137.988848 " transform="matrix(0.519838,0,0,0.519838,-13.344271,72.529899)"/>
<path style="fill-rule:evenodd;fill:rgb(87.058824%,19.215686%,3.137255%);fill-opacity:1;stroke-width:1.25;stroke-linecap:butt;stroke-linejoin:miter;stroke:rgb(0%,0%,0%);stroke-opacity:1;stroke-miterlimit:4;" d="M 398.810792 143.617106 L 406.407813 131.834584 C 411.51758 137.19984 413.606573 141.002107 414.395581 146.765624 C 414.523326 146.893368 402.342543 149.778883 402.342543 149.643625 C 402.342543 149.515881 398.938537 143.752364 398.810792 143.617106 Z M 398.810792 143.617106 " transform="matrix(0.519838,0,0,0.519838,-13.344271,72.529899)"/>
<path style="fill-rule:evenodd;fill:rgb(0%,0%,0%);fill-opacity:1;stroke-width:1.25;stroke-linecap:round;stroke-linejoin:round;stroke:rgb(0%,0%,0%);stroke-opacity:1;stroke-miterlimit:4;" d="M 378.506984 338.239108 C 378.506984 338.239108 392.784273 321.865311 420.549845 325.404576 C 416.364344 318.596563 402.868548 319.378057 402.868548 319.378057 C 402.868548 319.378057 398.683048 287.55473 401.951796 285.984228 C 405.228058 284.413726 419.114601 286.111972 419.114601 286.111972 C 420.940592 286.111972 424.08911 281.137464 421.601856 277.99646 C 419.114601 274.847942 411.780583 262.802418 414.786328 260.442908 C 417.799588 258.083398 434.173385 261.750407 434.173385 261.750407 L 387.937509 202.552255 C 387.937509 202.552255 383.226004 180.287197 392.656529 169.549173 C 404.048303 160.118647 402.868548 149.899113 402.477802 150.034372 C 400.9073 139.687094 385.187252 132.217817 374.584486 141.783601 C 368.294964 149.380622 372.487979 155.144139 372.487979 155.144139 C 372.487979 155.144139 355.986438 159.592641 355.325174 162.478157 C 354.671424 165.356158 373.923222 161.952151 373.923222 161.952151 L 372.089717 175.17743 C 372.089717 175.17743 334.630618 209.232524 363.320456 238.703855 C 363.575944 238.568597 364.237208 237.388842 364.237208 237.388842 C 364.237208 237.388842 374.321483 249.832627 384.92425 252.582884 C 394.880781 262.802418 393.964028 261.224402 393.964028 261.224402 C 393.964028 261.224402 395.925277 277.335196 394.099287 280.483714 C 391.604518 279.694706 366.198457 278.777954 362.403704 280.220711 C 358.992183 281.265208 345.894648 280.611458 349.17091 301.959764 C 351.658164 296.196247 353.88993 291.08648 353.88993 291.08648 C 353.88993 291.08648 353.491669 298.81876 356.640187 301.569017 C 356.114182 293.44599 359.653447 287.945476 359.653447 287.945476 C 359.653447 287.945476 360.307196 296.849997 362.268445 298.16501 C 364.237208 299.472509 364.237208 283.752462 375.102977 285.067475 C 385.97626 286.374975 393.836284 285.984228 393.836284 285.984228 C 393.836284 285.984228 397.503293 316.763059 396.323538 319.64106 C 388.463515 317.807555 369.737722 320.430068 368.557967 325.141573 C 379.558994 324.487824 384.668761 325.795323 384.668761 325.795323 C 384.668761 325.795323 375.756727 333.655347 378.506984 338.239108 Z M 378.506984 338.239108 " transform="matrix(0.519838,0,0,0.519838,-13.344271,72.529899)"/>
<path style="fill-rule:evenodd;fill:rgb(61.176471%,65.098039%,61.176471%);fill-opacity:1;stroke-width:1.25;stroke-linecap:round;stroke-linejoin:round;stroke:rgb(61.176471%,65.098039%,61.176471%);stroke-opacity:1;stroke-miterlimit:4;" d="M 382.917915 170.300609 C 382.917915 170.300609 355.66332 200.343032 367.423298 223.329469 C 368.04699 220.12835 367.776473 218.114501 368.16722 218.242245 C 367.51347 217.851498 371.548683 221.007531 371.240594 220.391353 C 371.330767 218.730679 370.015753 215.16887 370.015753 215.16887 C 371.240594 215.476959 372.47295 215.785048 373.697791 216.093137 C 372.983927 214.755581 372.262548 213.425538 371.548683 212.095496 C 373.292016 212.298384 375.035348 212.501272 376.771166 212.711674 C 376.771166 212.711674 374.930147 207.789766 375.546324 207.789766 C 376.162502 207.789766 379.84454 208.097855 379.84454 208.097855 C 372.097232 194.188769 379.408707 182.639193 382.917915 170.300609 Z M 382.917915 170.300609 " transform="matrix(0.519838,0,0,0.519838,-13.344271,72.529899)"/>
<path style="fill-rule:evenodd;fill:rgb(61.176471%,65.098039%,61.176471%);fill-opacity:1;stroke-width:1.25;stroke-linecap:butt;stroke-linejoin:miter;stroke:rgb(61.176471%,65.098039%,61.176471%);stroke-opacity:1;stroke-miterlimit:4;" d="M 392.393526 144.526344 C 392.393526 144.526344 393.82877 154.873621 388.200512 157.886881 C 387.28376 158.540631 383.744495 159.720386 384.2705 161.816893 C 384.92425 164.702408 386.494751 164.176403 388.726517 163.650398 C 394.617778 162.605901 401.425791 150.034372 392.393526 144.526344 Z M 392.393526 144.526344 " transform="matrix(0.519838,0,0,0.519838,-13.344271,72.529899)"/>
<path style=" stroke:none;fill-rule:evenodd;fill:rgb(100%,100%,100%);fill-opacity:1;" d="M 185.394531 152.292969 C 185.394531 152.933594 184.875 153.453125 184.238281 153.453125 C 183.597656 153.453125 183.082031 152.933594 183.082031 152.292969 C 183.082031 151.65625 183.597656 151.136719 184.238281 151.136719 C 184.875 151.136719 185.394531 151.65625 185.394531 152.292969 Z M 185.394531 152.292969 "/>
<path style="fill-rule:evenodd;fill:rgb(87.058824%,19.215686%,3.137255%);fill-opacity:1;stroke-width:1.25;stroke-linecap:butt;stroke-linejoin:miter;stroke:rgb(0%,0%,0%);stroke-opacity:1;stroke-miterlimit:4;" d="M 373.532475 162.079896 C 372.089717 163.259651 364.492696 171.119674 371.954459 173.997675 C 379.686739 171.901168 377.590231 170.465925 379.295992 168.760164 C 379.333563 165.220899 375.448638 164.304147 373.532475 162.079896 Z M 373.532475 162.079896 " transform="matrix(0.519838,0,0,0.519838,-13.344271,72.529899)"/>
<path style="fill-rule:evenodd;fill:rgb(61.176471%,65.098039%,61.176471%);fill-opacity:1;stroke-width:1.25;stroke-linecap:round;stroke-linejoin:round;stroke:rgb(61.176471%,65.098039%,61.176471%);stroke-opacity:1;stroke-miterlimit:4;" d="M 390.026502 236.35186 C 389.635755 238.050106 387.937509 244.339628 390.289505 249.186392 C 396.842029 246.436135 399.855289 247.217629 402.07954 248.660387 C 396.714285 244.339628 394.617778 242.506123 390.026502 236.35186 Z M 390.026502 236.35186 " transform="matrix(0.519838,0,0,0.519838,-13.344271,72.529899)"/>
<path style="fill-rule:evenodd;fill:rgb(100%,100%,100%);fill-opacity:1;stroke-width:1.25;stroke-linecap:round;stroke-linejoin:round;stroke:rgb(100%,100%,100%);stroke-opacity:1;stroke-miterlimit:4;" d="M 401.298047 266.07868 L 401.696308 280.746717 C 401.696308 280.746717 406.79856 281.663469 409.15807 280.746717 C 411.51758 279.829964 409.030326 270.534697 401.298047 266.07868 Z M 401.298047 266.07868 " transform="matrix(0.519838,0,0,0.519838,-13.344271,72.529899)"/>
<path style="fill-rule:evenodd;fill:rgb(61.176471%,65.098039%,61.176471%);fill-opacity:1;stroke-width:1.25;stroke-linecap:butt;stroke-linejoin:miter;stroke:rgb(0%,0%,0%);stroke-opacity:1;stroke-miterlimit:4;" d="M 438.358885 267.912185 C 438.358885 267.912185 428.928359 245.121122 404.829797 239.357605 C 380.731235 233.594089 383.872239 207.925025 385.841002 206.354523 C 386.885498 204.122757 387.674506 200.71875 394.617778 203.995013 C 401.553535 207.271275 433.512121 223.382069 438.095882 224.163563 C 442.679644 224.952571 438.749632 268.430676 438.358885 267.912185 Z M 438.358885 267.912185 " transform="matrix(0.519838,0,0,0.519838,-13.344271,72.529899)"/>
<path style="fill-rule:evenodd;fill:rgb(87.058824%,19.215686%,3.137255%);fill-opacity:1;stroke-width:1.25;stroke-linecap:butt;stroke-linejoin:round;stroke:rgb(0%,0%,0%);stroke-opacity:1;stroke-miterlimit:4;" d="M 415.440078 239.229861 C 415.049331 239.492864 447.661667 258.481659 437.83288 274.855456 C 447.135661 268.701193 444.122402 257.955654 444.122402 257.955654 C 444.122402 257.955654 451.719423 277.733457 433.249118 287.426985 C 435.217881 289.132746 436.525381 288.734485 436.525381 288.734485 L 433.384377 291.883003 C 433.384377 291.883003 431.941619 294.234998 444.385404 288.215994 C 440.981398 290.96625 440.718395 292.927499 440.718395 292.927499 C 440.718395 292.927499 441.635147 295.550012 449.758174 288.471482 C 443.205649 295.550012 441.762892 299.217021 441.762892 299.081762 C 459.444188 297.511261 497.955298 240.018869 429.582109 222.991322 C 433.256633 226.786076 432.730627 226.267585 432.730627 226.267585 Z M 415.440078 239.229861 " transform="matrix(0.519838,0,0,0.519838,-13.344271,72.529899)"/>
<path style="fill-rule:evenodd;fill:rgb(100%,100%,100%);fill-opacity:1;stroke-width:1.25;stroke-linecap:round;stroke-linejoin:round;stroke:rgb(0%,0%,0%);stroke-opacity:1;stroke-miterlimit:4;" d="M 416.882836 233.601603 C 421.331338 236.742607 422.90184 237.794618 423.427846 239.365119 C 419.37009 238.448367 415.703081 238.71137 415.703081 238.71137 C 415.703081 238.71137 406.926305 230.325341 405.355803 229.671591 C 404.176048 229.671591 397.368035 225.350832 397.368035 225.350832 C 393.956514 223.645072 390.81551 211.862551 403.38704 215.266557 C 416.35683 221.420821 418.190335 221.946826 418.190335 221.946826 C 423.337673 223.562414 428.492526 225.178002 433.647379 226.79359 C 436.615553 230.107424 439.583726 233.428773 442.5519 236.742607 C 442.5519 236.742607 426.704108 228.882583 424.735345 228.754839 C 429.063618 232.286589 431.550872 237.133354 431.550872 237.133354 C 426.531278 235.69811 422.165433 234.383097 416.882836 233.601603 Z M 416.882836 233.601603 " transform="matrix(0.519838,0,0,0.519838,-13.344271,72.529899)"/>
<path style="fill:none;stroke-width:1.25;stroke-linecap:round;stroke-linejoin:miter;stroke:rgb(100%,100%,100%);stroke-opacity:1;stroke-miterlimit:4;" d="M 355.197429 163.259651 C 355.197429 163.259651 370.391471 159.592641 372.224976 160.118647 " transform="matrix(0.519838,0,0,0.519838,-13.344271,72.529899)"/>
<g clip-path="url(#clip6)" clip-rule="nonzero">
<path style=" stroke:none;fill-rule:evenodd;fill:rgb(87.058824%,22.352941%,3.137255%);fill-opacity:1;" d="M -96 320.003906 L 479.980469 320.003906 L 479.980469 383.992188 L -96 383.992188 Z M -96 320.003906 "/>
</g>
</g>
</svg>

<?xml version="1.0" encoding="UTF-8" standalone="no"?>
<!-- Created with Sodipodi ("http://www.sodipodi.com/") -->
<svg id="svg548" xmlns:rdf="http://www.w3.org/1999/02/22-rdf-syntax-ns#" xmlns="http://www.w3.org/2000/svg" height="512" width="512" version="1.1" xmlns:cc="http://creativecommons.org/ns#" xmlns:dc="http://purl.org/dc/elements/1.1/">
 <metadata id="metadata4201">
  <rdf:RDF>
   <cc:Work rdf:about="">
    <dc:format>image/svg+xml</dc:format>
    <dc:type rdf:resource="http://purl.org/dc/dcmitype/StillImage"/>
   </cc:Work>
  </rdf:RDF>
 </metadata>
 <defs id="defs550">
  <clipPath id="clipPath4282" clipPathUnits="userSpaceOnUse">
   <rect id="rect4284" fill-opacity="0.67" height="496.06" width="496.06" y=".00019983" x="124.02"/>
  </clipPath>
 </defs>
 <g id="flag" clip-path="url(#clipPath4282)" transform="matrix(1.0321 0 0 1.0321 -128 -.00020625)">
  <rect id="rect585" fill-rule="evenodd" height="82.665" width="744.09" y="330.73" x="0" stroke-width="1pt" fill="#ffe700"/>
  <rect id="rect586" fill-rule="evenodd" height="82.665" width="744.09" y="248.03" x="0" stroke-width="1pt"/>
  <rect id="rect587" fill-rule="evenodd" height="82.665" width="744.09" y="165.37" x="0" stroke-width="1pt" fill="#de3908"/>
  <rect id="rect588" fill-rule="evenodd" height="82.665" width="744.09" y="82.701" x="0" stroke-width="1pt" fill="#ffe700"/>
  <rect id="rect589" fill-rule="evenodd" height="82.665" width="744.09" y="0.000221" x="0" stroke-width="1pt"/>
  <g id="g568" transform="matrix(.67156 0 0 .67156 106.78 93.699)">
   <path id="path567" d="m505 232.31c0 63.513-51.487 115-115 115s-115-51.487-115-115 51.487-115 115-115 115 51.487 115 115z" fill-rule="evenodd" transform="translate(5 -2.5)" stroke="#000" stroke-width="1pt" fill="#fffdff"/>
   <path id="path556" d="m374.71 141.65-7.466-13.752c2.881-2.881 7.728-5.108 15.455-5.108 0 0.524-0.786 15.062-0.786 15.062l-7.203 3.798z" fill-rule="evenodd" stroke="#000" stroke-width="1pt" fill="#de3108"/>
   <path id="path557" d="m381.91 137.99 1.048-15.193s15.455-0.916 23.837 9.168c0.131-0.131-8.251 11.787-8.251 11.787l-16.634-5.762z" fill-rule="evenodd" stroke="#000" stroke-width="1pt" fill="#ffe700"/>
   <path id="path558" d="m398.81 143.62 7.596-11.787c5.108 5.37 7.203 9.168 7.989 14.931 0.131 0.131-12.049 3.012-12.049 2.881s-3.405-5.894-3.536-6.025z" fill-rule="evenodd" stroke="#000" stroke-width="1pt" fill="#de3108"/>
   <path id="path565" stroke-linejoin="round" d="m378.51 338.24s14.276-16.372 42.042-12.835c-4.191-6.811-17.681-6.025-17.681-6.025s-4.191-31.826-0.917-33.398 17.157 0.131 17.157 0.131c1.833 0 4.977-4.977 2.489-8.12-2.489-3.144-9.823-15.193-6.811-17.551 3.013-2.357 19.384 1.31 19.384 1.31l-46.233-59.199s-4.715-22.265 4.715-33.005c11.395-9.43 10.216-19.646 9.823-19.515-1.572-10.347-17.288-17.813-27.897-8.251-6.287 7.596-2.096 13.359-2.096 13.359s-16.502 4.453-17.157 7.334c-0.655 2.882 18.598-0.523 18.598-0.523l-1.834 13.228s-37.458 34.052-8.775 63.521c0.262-0.131 0.917-1.31 0.917-1.31s10.085 12.443 20.693 15.193c9.954 10.216 9.038 8.644 9.038 8.644s1.964 16.11 0.131 19.253c-2.489-0.786-27.897-1.702-31.696-0.262-3.405 1.048-16.502 0.393-13.228 21.742 2.488-5.763 4.715-10.871 4.715-10.871s-0.393 7.727 2.751 10.478c-0.524-8.121 3.012-13.621 3.012-13.621s0.655 8.906 2.619 10.215c1.965 1.31 1.965-14.407 12.836-13.097 10.87 1.31 18.729 0.917 18.729 0.917s3.667 30.778 2.488 33.66c-7.859-1.834-26.587 0.786-27.766 5.501 11.001-0.655 16.11 0.654 16.11 0.654s-8.906 7.859-6.156 12.443z" fill-rule="evenodd" stroke="#000" stroke-linecap="round" stroke-width="1.25"/>
   <path id="path552" stroke-linejoin="round" d="m382.92 170.3s-27.256 30.042-15.497 53.031c0.626-3.206 0.353-5.22 0.746-5.089-0.655-0.393 3.38 2.766 3.073 2.151 0.086-1.662-1.229-5.224-1.229-5.224 1.229 0.307 2.459 0.615 3.688 0.922-0.717-1.332-1.435-2.663-2.152-3.995 1.742 0.205 3.483 0.409 5.225 0.614 0 0-1.844-4.917-1.229-4.917 0.614 0 4.302 0.307 4.302 0.307-7.751-13.91-0.439-25.462 3.073-37.8z" fill-rule="evenodd" stroke="#9ca69c" stroke-linecap="round" stroke-width="1.25" fill="#9ca69c"/>
   <path id="path554" d="m392.39 144.53s1.441 10.347-4.191 13.359c-0.917 0.655-4.453 1.834-3.929 3.93 0.655 2.881 2.226 2.357 4.453 1.833 5.893-1.048 12.704-13.621 3.667-19.122z" fill-rule="evenodd" stroke="#9ca69c" stroke-width="1pt" fill="#9ca69c"/>
   <path id="path555" d="m382.31 153.44c0 1.2297-0.99685 2.2265-2.2265 2.2265-1.2297 0-2.2265-0.99685-2.2265-2.2265 0-1.2297 0.99686-2.2265 2.2265-2.2265 1.2297 0 2.2265 0.99685 2.2265 2.2265z" fill-rule="evenodd" fill="#fff"/>
   <path id="path559" d="m373.53 162.08c-1.441 1.179-9.037 9.038-1.572 11.919 7.728-2.096 5.632-3.536 7.335-5.239 0.044-3.536-3.842-4.453-5.763-6.68z" fill-rule="evenodd" stroke="#000" stroke-width="1pt" fill="#de3108"/>
   <path id="path560" stroke-linejoin="round" d="m390.03 236.35c-0.393 1.703-2.095 7.989 0.262 12.835 6.549-2.75 9.561-1.965 11.788-0.524-5.369-4.322-7.465-6.156-12.05-12.311z" fill-rule="evenodd" stroke="#9ca69c" stroke-linecap="round" stroke-width="1.25" fill="#9ca69c"/>
   <path id="path561" stroke-linejoin="round" d="m401.3 266.08 0.393 14.669s5.108 0.917 7.465 0c2.358-0.917-0.131-10.216-7.858-14.669z" fill-rule="evenodd" stroke="#fff" stroke-linecap="round" stroke-width="1.25" fill="#fff"/>
   <path id="path564" d="m438.36 267.91s-9.43-22.789-33.529-28.552-20.956-31.433-18.991-33.005c1.048-2.227 1.834-5.632 8.775-2.357 6.942 3.274 38.899 19.383 43.483 20.169s0.655 44.269 0.262 43.745z" fill-rule="evenodd" stroke="#000" stroke-width="1pt" fill="#9ca69c"/>
   <path id="path563" stroke-linejoin="round" d="m415.44 239.23c-0.393 0.262 32.219 19.252 22.396 35.624 9.3-6.156 6.287-16.895 6.287-16.895s7.596 19.777-10.871 29.469c1.965 1.703 3.275 1.309 3.275 1.309l-3.144 3.144s-1.441 2.357 11.002-3.668c-3.406 2.751-3.667 4.715-3.667 4.715s0.916 2.62 9.037-4.453c-6.549 7.073-7.99 10.74-7.99 10.609 17.681-1.572 56.187-59.068-12.18-76.095 3.668 3.799 3.143 3.275 3.143 3.275l-17.288 12.966z" fill-rule="evenodd" stroke="#000" stroke-width="1.25" fill="#de3108"/>
   <path id="path562" stroke-linejoin="round" d="m416.88 233.6c4.453 3.143 6.024 4.191 6.548 5.763-4.06-0.916-7.727-0.655-7.727-0.655s-8.775-8.382-10.347-9.037c-1.179 0-7.989-4.322-7.989-4.322-3.405-1.703-6.548-13.49 6.025-10.085 12.965 6.155 14.799 6.68 14.799 6.68 5.152 1.615 10.303 3.231 15.455 4.846 2.969 3.318 5.937 6.636 8.906 9.954 0 0-15.847-7.859-17.812-7.99 4.322 3.536 6.811 8.382 6.811 8.382-5.021-1.441-9.386-2.75-14.669-3.536z" fill-rule="evenodd" stroke="#000" stroke-linecap="round" stroke-width="1.25" fill="#fff"/>
   <path id="path566" d="m355.2 163.26s15.193-3.667 17.026-3.143" stroke="#fff" stroke-linecap="round" stroke-width="1.25" fill="none"/>
  </g>
  <rect id="rect584" fill-rule="evenodd" height="82.665" width="744.09" y="413.4" x="0" stroke-width="1pt" fill="#de3908"/>
 </g>
</svg>
